hosted_logos/opentimelineio.svg

<svg xmlns="http://www.w3.org/2000/svg" role="img" viewBox="-43.55 -43.55 2134.60 382.10"><path fill="#007E4C" stroke="#007E4C" d="M110 74h83v46h-83V74zm102 0h199.5l.5.5V120H212.5l-.5-.5V74zM0 252h192.5l.5.5V297H.5l-.5-.5V252zm212 0h86v45h-86v-45z" opacity=".988"/><path fill="#98C24F" stroke="#98C24F" d="M152.5 0h99l3.5 2.5v7L244.5 20l-34 33-6 5h-4L149 8.5q-1.2-7.2 3.5-8.5zM1 139h192v95H1v-95zm211 0h200v95H212v-95z" opacity=".984"/><path fill="#59595B" stroke="#59595B" d="M1120 89h41v29h-41V89zm376 0h38.5l.5.5V236h-38.5l-.5-.5V89zm60 0h40v29h-40V89zm-986.5 3l20 1 14 4q17.8 7.3 28.5 21.5 8.8 10.7 13 26l2 10v21q-5.5 31.5-26.5 47.5-10.7 8.8-26 13l-10 2h-18l-11-2-17-7q-10.7-6.2-18.5-15.5-9.1-10.9-14-26l-2-9-1-17 1-1v-8l2-9 8-18 16.5-18.5 17-10 22-5zm-1.5 16q-18 3-28 13-15 12-19 36v17l2 9q4 13 13 23 11 12 31 16h18l5-1q13-4 22-12 9-9 14-21l4-17v-11l-3-14-10-18q-9-11-22-17l-12-3h-15zm1404.5-16q20.4-.9 34 5 18.4 7.6 29.5 22.5l11 21 3 13v22q-5.5 31.5-26.5 47.5-9.3 7.7-22 12l-14 3h-18l-11-2-17-7q-10.7-6.2-18.5-15.5l-11-18-5-18q1.3-8.3-1-13l1-1 1-16 4-12q7.5-17.5 21.5-28.5l17-10 22-5zm-1.5 16q-18 3-28 13-15 13-19 36v16l2 10 9 18q11 16 35 21h18l5-1q13-4 22-12 8-8 13-18l5-19v-12l-2-11q-4-13-11-21-9-11-22-17l-12-3h-15zM983 95h123.5l.5.5V130h-42v106h-40V130.5l-.5-.5H983V95zm887 0h16.5l.5.5V236h-16.5l-.5-.5V95zm-625.5 29q25.7-1.7 35.5 12.5l2.5 4.5q7-9 18-14l11-3h14q16 2.5 23.5 13.5l4 7 3 12V236h-39v-64.5q-1.6-7-6.5-10.5-3.7-3.3-12-2l-8.5 6.5-2 5V236h-39v-61.5l-2-8-4.5-5.5q-3.7-3.3-12-2-6.1 1.4-8.5 6.5l-3 9V236h-39V126h39v13.5l3-2 1.5-2.5q7.8-8.2 21-11zm173 0h16l13 3q14.2 5.3 22.5 16.5 7 9.5 10 23l1 5V192l-72 .5q2.5 8 8.5 12.5l6 3 12 1 11-4 8-7h2l20.5 17.5-5.5 7.5q-10.1 9.9-26 14-4.8-1.2-6 1h-20q-23.1-3.9-35.5-18.5-14.2-14.8-13-45l5-19 12.5-17.5 13-9 17-5zm5.5 29l-5 2q-8 5-10 16v1h36l-4-11q-5-8-17-8zm257.5-29q25.7-1.7 35.5 12.5l5 9 3 13V236h-39v-62.5l-2-7-3.5-4.5q-3.8-4.2-13-3-5.7 1.3-8.5 5.5l-3 6V236h-39V126h38.5l.5.5v12l7.5-6.5q7-6 18-8zm105 0h16l13 3q13.4 5.1 21.5 15.5 7.9 10.1 11 25l1 24.5h-71.5l-.5 1.5q2.6 7.4 8.5 11.5l10 4h8l11-4 8-7h2l20.5 17.5-10.5 11.5q-8.7 6.8-21 10-4.7-1.2-6 1h-20q-14.6-2.4-25-9l-11.5-10.5q-13.8-14.7-12-45l2-10 6-14 10.5-12.5 14-9 15-4zm5.5 29l-7 3q-7 5-9 15l1 1h35q1-8-4-12-5-7-16-7zm-670-27h39v110h-39V126zm435 0h39v110h-39V126zm-850.5 3h14l11 3q13.5 5.5 21.5 16.5 6.3 7.8 9 19l1 5v22q-4.4 22.1-19.5 33.5l-15 8-10 2h-11q-22.2-3.8-32.5-19.5l-.5-1.5-.5 51h-15.5l-.5-.5V131h16v18.5l4-3 6.5-7.5q8.4-7.6 22-10zm-1.5 15l-15 7q-13 8-16 26v14q2 10 7 17 8 11 25 15 18 1 27-7 7-6 11-15l3-14-1-13-9-18q-5-7-13-10t-19-2zm110.5-15q32.7-1.7 44.5 17.5 12.7 15 11 43.5h-81.5l-.5 2.5q3 15.5 13.5 23.5 8.4 8.1 25 8l13-3 18-12 9.5 9.5-7.5 7.5q-13.7 13.8-43 12l-17-5q-9.7-5.2-16.5-13.5-7-8-10-20l-2-19 1-1 1-12 7-16 12.5-13.5q8.9-6.6 22-9zm2.5 14q-10 2-16 8-10 9-13 24l1 2h64q0-14-7-21-6-8-15-12l-14-1zm107.5-14q28.8-1.8 39.5 14.5l5 9 3 15V236h-16.5l-.5-.5v-68q-2.4-12.1-10.5-18.5l-12-5h-10q-13.9 2.6-20.5 12.5l-5 12V236h-16.5l-.5-.5V131h17v14.5l3-2 4.5-5.5q7.6-6.9 20-9z" opacity=".961"/></svg>

<svg width="2050" height="297" version="1.1" xmlns="http://www.w3.org/2000/svg"><path fill="rgb(0,0,0)" stroke="rgb(0,0,0)" stroke-width="1" opacity="0" d="M 0 0 L 152 0.5 Q 147.8 1.8 149 8.5 L 198.5 57 L 204.5 58 L 255 9.5 Q 256.8 2.7 253.5 1 L 252 0.5 L 2050 0 L 2049.5 153 Q 2044 121.5 2022.5 106 Q 2012 98 1997.5 94 L 1986.5 93 L 1985.5 92 L 1972.5 92 L 1956.5 95 L 1940.5 102 L 1922 118.5 Q 1914.3 127.8 1910 140.5 L 1907 152.5 Q 1908.4 161.4 1906 166.5 L 1907 167.5 L 1908 182.5 L 1912 195.5 Q 1919.1 211.4 1931.5 222 Q 1942.5 231.5 1958.5 236 L 1969.5 238 L 1987.5 238 Q 2019.2 232.7 2035 211.5 Q 2046.6 198.1 2049.5 176 L 2050 297 L 298.5 297 L 298 296.5 L 298 252 L 212 252 L 212 297 L 193 297 L 193 252.5 L 192.5 252 L 0 252 L 0 0 Z M 110 74 L 110 120 L 193 120 L 193 74 L 110 74 Z M 212 74 L 212 120 L 213 120 L 412 120 L 412 75 L 412 74 L 212 74 Z M 1120 89 L 1120 118 L 1161 118 L 1161 89 L 1120 89 Z M 1496 89 L 1496 236 L 1497 236 L 1535 236 L 1535 90 L 1535 89 L 1496 89 Z M 1556 89 L 1556 118 L 1596 118 L 1596 89 L 1556 89 Z M 570 92 L 548 97 L 531 107 L 514 126 L 506 144 L 504 153 L 504 161 L 503 162 L 504 179 L 506 188 Q 511 203 520 214 Q 528 223 539 229 L 556 236 L 567 238 L 585 238 L 595 236 Q 610 232 621 223 Q 642 207 647 176 L 647 155 L 645 145 Q 641 129 632 119 Q 621 104 604 97 L 590 93 L 570 92 Z M 983 95 L 983 130 L 1025 130 L 1025 131 L 1025 236 L 1065 236 L 1065 130 L 1107 130 L 1107 96 L 1107 95 L 983 95 Z M 1870 95 L 1870 236 L 1871 236 L 1887 236 L 1887 96 L 1887 95 L 1870 95 Z M 1245 124 Q 1231 127 1224 135 L 1222 138 L 1219 140 L 1219 126 L 1180 126 L 1180 236 L 1219 236 L 1219 175 L 1222 166 Q 1224 160 1231 159 Q 1239 158 1243 161 L 1247 167 L 1249 175 L 1249 236 L 1288 236 L 1288 171 L 1290 166 L 1299 159 Q 1307 158 1311 161 Q 1315 165 1317 172 L 1317 236 L 1356 236 L 1356 157 L 1353 145 L 1349 138 Q 1341 127 1326 124 L 1312 124 L 1301 127 Q 1290 132 1283 141 L 1280 137 Q 1270 122 1245 124 Z M 1418 124 L 1401 129 L 1388 138 L 1375 156 L 1370 175 Q 1369 205 1383 220 Q 1395 234 1419 238 L 1439 238 Q 1440 236 1445 237 Q 1460 233 1471 223 L 1476 216 L 1456 198 L 1454 198 L 1446 205 L 1435 209 L 1423 208 L 1417 205 Q 1411 201 1408 193 L 1480 192 L 1480 172 L 1479 167 Q 1476 153 1469 144 Q 1461 132 1447 127 L 1434 124 L 1418 124 Z M 1681 124 Q 1670 126 1663 132 L 1655 139 L 1655 127 L 1655 126 L 1616 126 L 1616 236 L 1655 236 L 1655 171 L 1658 165 Q 1661 160 1667 159 Q 1676 158 1680 162 L 1683 167 L 1685 174 L 1685 236 L 1724 236 L 1724 159 L 1721 146 L 1716 137 Q 1706 122 1681 124 Z M 1786 124 L 1771 128 L 1757 137 L 1746 150 L 1740 164 L 1738 174 Q 1736 204 1750 219 L 1762 229 Q 1772 236 1787 238 L 1807 238 Q 1808 236 1813 237 Q 1825 234 1834 227 L 1844 216 L 1824 198 L 1822 198 L 1814 205 L 1803 209 L 1795 209 L 1785 205 Q 1779 201 1776 194 L 1777 192 L 1848 192 L 1847 168 Q 1844 153 1836 143 Q 1828 132 1815 127 L 1802 124 L 1786 124 Z M 1121 126 L 1121 236 L 1160 236 L 1160 126 L 1121 126 Z M 1556 126 L 1556 236 L 1595 236 L 1595 126 L 1556 126 Z M 706 129 Q 692 131 684 139 L 677 147 L 673 150 L 673 131 L 657 131 L 657 268 L 658 268 L 673 268 L 674 217 L 674 219 Q 684 234 707 238 L 718 238 L 728 236 L 743 228 Q 758 217 762 195 L 762 173 L 761 168 Q 758 156 752 149 Q 744 137 731 132 L 720 129 L 706 129 Z M 815 129 Q 801 131 793 138 L 780 152 L 773 168 L 772 180 L 771 181 L 773 200 Q 776 212 783 220 Q 790 228 800 233 L 817 238 Q 846 240 860 226 L 867 219 L 858 209 L 840 221 L 827 224 Q 810 224 802 216 Q 791 208 788 193 L 789 190 L 870 190 Q 872 162 859 147 Q 847 127 815 129 Z M 925 129 Q 912 131 905 138 L 900 144 L 897 146 L 897 131 L 880 131 L 880 236 L 881 236 L 897 236 L 897 169 L 902 157 Q 909 147 923 144 L 933 144 L 945 149 Q 953 155 955 168 L 955 236 L 956 236 L 972 236 L 972 168 L 969 153 L 964 144 Q 953 127 925 129 Z M 1 139 L 1 234 L 193 234 L 193 139 L 1 139 Z M 212 139 L 212 234 L 412 234 L 412 139 L 212 139 Z "></path><path fill="rgb(0,0,0)" stroke="rgb(0,0,0)" stroke-width="1" opacity="0" d="M 567.5 108 L 582.5 108 L 594.5 111 Q 608.2 116.8 617 127.5 L 627 145.5 L 630 159.5 L 630 170.5 L 626 187.5 Q 620.9 200.4 611.5 209 Q 602.7 217.2 589.5 221 L 584.5 222 L 566.5 222 Q 546.9 218.1 536 205.5 Q 527.2 196.3 523 182.5 L 521 173.5 L 521 156.5 Q 524.9 133.4 539.5 121 Q 550 111 567.5 108 Z "></path><path fill="rgb(0,0,0)" stroke="rgb(0,0,0)" stroke-width="1" opacity="0" d="M 1970.5 108 L 1985.5 108 L 1997.5 111 Q 2011.4 116.6 2020 127.5 Q 2027.4 136.1 2031 148.5 L 2033 159.5 L 2033 171.5 L 2028 190.5 Q 2022.8 201.3 2014.5 209 Q 2005.7 217.2 1992.5 221 L 1987.5 222 L 1969.5 222 Q 1946.4 217.1 1935 200.5 L 1926 182.5 L 1924 172.5 L 1924 156.5 Q 1928.1 133.6 1942.5 121 Q 1953 111 1970.5 108 Z "></path><path fill="rgb(0,0,0)" stroke="rgb(0,0,0)" stroke-width="1" opacity="0" d="M 816.5 143 L 830.5 144 Q 840.5 147.5 846 155.5 Q 853 163.4 853 177 L 788.5 177 L 788 174.5 Q 791 159.5 800.5 151 Q 806.5 145 816.5 143 Z "></path><path fill="rgb(0,0,0)" stroke="rgb(0,0,0)" stroke-width="1" opacity="0" d="M 703.5 144 Q 715.3 142.7 722.5 146 Q 730.8 149.2 736 155.5 L 745 173.5 L 746 186.5 L 743 200.5 Q 739.1 210.1 731.5 216 Q 722.6 224.1 704.5 223 Q 688.3 219.2 680 207.5 Q 674.9 200.6 673 190.5 L 673 176.5 Q 676.4 159.4 688.5 151 L 703.5 144 Z "></path><path fill="rgb(0,0,0)" stroke="rgb(0,0,0)" stroke-width="1" opacity="0" d="M 1422.5 153 Q 1435.4 152.6 1440 160.5 L 1444 171.5 L 1407.5 172 L 1408 170.5 Q 1409.6 159.6 1417.5 155 L 1422.5 153 Z "></path><path fill="rgb(0,0,0)" stroke="rgb(0,0,0)" stroke-width="1" opacity="0" d="M 1790.5 153 Q 1802.5 152.5 1807 159.5 Q 1811.8 163.8 1811 172 L 1775.5 172 L 1775 170.5 Q 1777.1 161.1 1783.5 156 L 1790.5 153 Z "></path><path fill="rgb(0,126,76)" stroke="rgb(0,126,76)" stroke-width="1" opacity="0.9882352941176471" d="M 110 74 L 193 74 L 193 120 L 110 120 L 110 74 Z "></path><path fill="rgb(0,126,76)" stroke="rgb(0,126,76)" stroke-width="1" opacity="0.9882352941176471" d="M 212 74 L 411.5 74 L 412 74.5 L 412 120 L 212.5 120 L 212 119.5 L 212 74 Z "></path><path fill="rgb(0,126,76)" stroke="rgb(0,126,76)" stroke-width="1" opacity="0.9882352941176471" d="M 0 252 L 192.5 252 L 193 252.5 L 193 297 L 0.5 297 L 0 296.5 L 0 252 Z "></path><path fill="rgb(0,126,76)" stroke="rgb(0,126,76)" stroke-width="1" opacity="0.9882352941176471" d="M 212 252 L 298 252 L 298 297 L 212 297 L 212 252 Z "></path><path fill="rgb(152,194,79)" stroke="rgb(152,194,79)" stroke-width="1" opacity="0.984313725490196" d="M 152.5 0 L 251.5 0 L 255 2.5 L 255 9.5 L 244.5 20 L 210.5 53 L 204.5 58 L 200.5 58 L 149 8.5 Q 147.8 1.3 152.5 0 Z "></path><path fill="rgb(152,194,79)" stroke="rgb(152,194,79)" stroke-width="1" opacity="0.984313725490196" d="M 1 139 L 193 139 L 193 234 L 1 234 L 1 139 Z "></path><path fill="rgb(152,194,79)" stroke="rgb(152,194,79)" stroke-width="1" opacity="0.984313725490196" d="M 212 139 L 412 139 L 412 234 L 212 234 L 212 139 Z "></path><path fill="rgb(89,89,91)" stroke="rgb(89,89,91)" stroke-width="1" opacity="0.9607843137254902" d="M 1120 89 L 1161 89 L 1161 118 L 1120 118 L 1120 89 Z "></path><path fill="rgb(89,89,91)" stroke="rgb(89,89,91)" stroke-width="1" opacity="0.9607843137254902" d="M 1496 89 L 1534.5 89 L 1535 89.5 L 1535 236 L 1496.5 236 L 1496 235.5 L 1496 89 Z "></path><path fill="rgb(89,89,91)" stroke="rgb(89,89,91)" stroke-width="1" opacity="0.9607843137254902" d="M 1556 89 L 1596 89 L 1596 118 L 1556 118 L 1556 89 Z "></path><path fill="rgb(89,89,91)" stroke="rgb(89,89,91)" stroke-width="1" opacity="0.9607843137254902" d="M 569.5 92 L 589.5 93 L 603.5 97 Q 621.3 104.3 632 118.5 Q 640.8 129.2 645 144.5 L 647 154.5 L 647 175.5 Q 641.5 207 620.5 223 Q 609.8 231.8 594.5 236 L 584.5 238 L 566.5 238 L 555.5 236 L 538.5 229 Q 527.8 222.8 520 213.5 Q 510.9 202.6 506 187.5 L 504 178.5 L 503 161.5 L 504 160.5 L 504 152.5 L 506 143.5 L 514 125.5 L 530.5 107 L 547.5 97 L 569.5 92 Z M 568 108 Q 550 111 540 121 Q 525 133 521 157 L 521 174 L 523 183 Q 527 196 536 206 Q 547 218 567 222 L 585 222 L 590 221 Q 603 217 612 209 Q 621 200 626 188 L 630 171 L 630 160 L 627 146 L 617 128 Q 608 117 595 111 L 583 108 L 568 108 Z "></path><path fill="rgb(89,89,91)" stroke="rgb(89,89,91)" stroke-width="1" opacity="0.9607843137254902" d="M 1972.5 92 Q 1992.9 91.1 2006.5 97 Q 2024.9 104.6 2036 119.5 L 2047 140.5 L 2050 153.5 L 2050 175.5 Q 2044.5 207 2023.5 223 Q 2014.2 230.7 2001.5 235 L 1987.5 238 L 1969.5 238 L 1958.5 236 L 1941.5 229 Q 1930.8 222.8 1923 213.5 L 1912 195.5 L 1907 177.5 Q 1908.3 169.2 1906 164.5 L 1907 163.5 L 1908 147.5 L 1912 135.5 Q 1919.5 118 1933.5 107 L 1950.5 97 L 1972.5 92 Z M 1971 108 Q 1953 111 1943 121 Q 1928 134 1924 157 L 1924 173 L 1926 183 L 1935 201 Q 1946 217 1970 222 L 1988 222 L 1993 221 Q 2006 217 2015 209 Q 2023 201 2028 191 L 2033 172 L 2033 160 L 2031 149 Q 2027 136 2020 128 Q 2011 117 1998 111 L 1986 108 L 1971 108 Z "></path><path fill="rgb(89,89,91)" stroke="rgb(89,89,91)" stroke-width="1" opacity="0.9607843137254902" d="M 983 95 L 1106.5 95 L 1107 95.5 L 1107 130 L 1065 130 L 1065 236 L 1025 236 L 1025 130.5 L 1024.5 130 L 983 130 L 983 95 Z "></path><path fill="rgb(89,89,91)" stroke="rgb(89,89,91)" stroke-width="1" opacity="0.9607843137254902" d="M 1870 95 L 1886.5 95 L 1887 95.5 L 1887 236 L 1870.5 236 L 1870 235.5 L 1870 95 Z "></path><path fill="rgb(89,89,91)" stroke="rgb(89,89,91)" stroke-width="1" opacity="0.9607843137254902" d="M 1244.5 124 Q 1270.2 122.3 1280 136.5 L 1282.5 141 Q 1289.5 132 1300.5 127 L 1311.5 124 L 1325.5 124 Q 1341.5 126.5 1349 137.5 L 1353 144.5 L 1356 156.5 L 1356 236 L 1317 236 L 1317 171.5 Q 1315.4 164.5 1310.5 161 Q 1306.8 157.7 1298.5 159 L 1290 165.5 L 1288 170.5 L 1288 236 L 1249 236 L 1249 174.5 L 1247 166.5 L 1242.5 161 Q 1238.8 157.7 1230.5 159 Q 1224.4 160.4 1222 165.5 L 1219 174.5 L 1219 236 L 1180 236 L 1180 126 L 1219 126 L 1219 139.5 L 1222 137.5 L 1223.5 135 Q 1231.3 126.8 1244.5 124 Z "></path><path fill="rgb(89,89,91)" stroke="rgb(89,89,91)" stroke-width="1" opacity="0.9607843137254902" d="M 1417.5 124 L 1433.5 124 L 1446.5 127 Q 1460.7 132.3 1469 143.5 Q 1476 153 1479 166.5 L 1480 171.5 L 1480 192 L 1408 192.5 Q 1410.5 200.5 1416.5 205 L 1422.5 208 L 1434.5 209 L 1445.5 205 L 1453.5 198 L 1455.5 198 L 1476 215.5 L 1470.5 223 Q 1460.4 232.9 1444.5 237 Q 1439.7 235.8 1438.5 238 L 1418.5 238 Q 1395.4 234.1 1383 219.5 Q 1368.8 204.7 1370 174.5 L 1375 155.5 L 1387.5 138 L 1400.5 129 L 1417.5 124 Z M 1423 153 L 1418 155 Q 1410 160 1408 171 L 1408 172 L 1444 172 L 1440 161 Q 1435 153 1423 153 Z "></path><path fill="rgb(89,89,91)" stroke="rgb(89,89,91)" stroke-width="1" opacity="0.9607843137254902" d="M 1680.5 124 Q 1706.2 122.3 1716 136.5 L 1721 145.5 L 1724 158.5 L 1724 236 L 1685 236 L 1685 173.5 L 1683 166.5 L 1679.5 162 Q 1675.7 157.8 1666.5 159 Q 1660.8 160.3 1658 164.5 L 1655 170.5 L 1655 236 L 1616 236 L 1616 126 L 1654.5 126 L 1655 126.5 L 1655 138.5 L 1662.5 132 Q 1669.5 126 1680.5 124 Z "></path><path fill="rgb(89,89,91)" stroke="rgb(89,89,91)" stroke-width="1" opacity="0.9607843137254902" d="M 1785.5 124 L 1801.5 124 L 1814.5 127 Q 1827.9 132.1 1836 142.5 Q 1843.9 152.6 1847 167.5 L 1848 192 L 1776.5 192 L 1776 193.5 Q 1778.6 200.9 1784.5 205 L 1794.5 209 L 1802.5 209 L 1813.5 205 L 1821.5 198 L 1823.5 198 L 1844 215.5 L 1833.5 227 Q 1824.8 233.8 1812.5 237 Q 1807.8 235.8 1806.5 238 L 1786.5 238 Q 1771.9 235.6 1761.5 229 L 1750 218.5 Q 1736.2 203.8 1738 173.5 L 1740 163.5 L 1746 149.5 L 1756.5 137 L 1770.5 128 L 1785.5 124 Z M 1791 153 L 1784 156 Q 1777 161 1775 171 L 1776 172 L 1811 172 Q 1812 164 1807 160 Q 1802 153 1791 153 Z "></path><path fill="rgb(89,89,91)" stroke="rgb(89,89,91)" stroke-width="1" opacity="0.9607843137254902" d="M 1121 126 L 1160 126 L 1160 236 L 1121 236 L 1121 126 Z "></path><path fill="rgb(89,89,91)" stroke="rgb(89,89,91)" stroke-width="1" opacity="0.9607843137254902" d="M 1556 126 L 1595 126 L 1595 236 L 1556 236 L 1556 126 Z "></path><path fill="rgb(89,89,91)" stroke="rgb(89,89,91)" stroke-width="1" opacity="0.9607843137254902" d="M 705.5 129 L 719.5 129 L 730.5 132 Q 744 137.5 752 148.5 Q 758.3 156.3 761 167.5 L 762 172.5 L 762 194.5 Q 757.6 216.6 742.5 228 L 727.5 236 L 717.5 238 L 706.5 238 Q 684.3 234.2 674 218.5 L 673.5 217 L 673 268 L 657.5 268 L 657 267.5 L 657 131 L 673 131 L 673 149.5 L 677 146.5 L 683.5 139 Q 691.9 131.4 705.5 129 Z M 704 144 L 689 151 Q 676 159 673 177 L 673 191 Q 675 201 680 208 Q 688 219 705 223 Q 723 224 732 216 Q 739 210 743 201 L 746 187 L 745 174 L 736 156 Q 731 149 723 146 Q 715 143 704 144 Z "></path><path fill="rgb(89,89,91)" stroke="rgb(89,89,91)" stroke-width="1" opacity="0.9607843137254902" d="M 814.5 129 Q 847.2 127.3 859 146.5 Q 871.7 161.5 870 190 L 788.5 190 L 788 192.5 Q 791 208 801.5 216 Q 809.9 224.1 826.5 224 L 839.5 221 L 857.5 209 L 867 218.5 L 859.5 226 Q 845.8 239.8 816.5 238 L 799.5 233 Q 789.8 227.8 783 219.5 Q 776 211.5 773 199.5 L 771 180.5 L 772 179.5 L 773 167.5 L 780 151.5 L 792.5 138 Q 801.4 131.4 814.5 129 Z M 817 143 Q 807 145 801 151 Q 791 160 788 175 L 789 177 L 853 177 Q 853 163 846 156 Q 840 148 831 144 L 817 143 Z "></path><path fill="rgb(89,89,91)" stroke="rgb(89,89,91)" stroke-width="1" opacity="0.9607843137254902" d="M 924.5 129 Q 953.3 127.2 964 143.5 L 969 152.5 L 972 167.5 L 972 236 L 955.5 236 L 955 235.5 L 955 167.5 Q 952.6 155.4 944.5 149 L 932.5 144 L 922.5 144 Q 908.6 146.6 902 156.5 L 897 168.5 L 897 236 L 880.5 236 L 880 235.5 L 880 131 L 897 131 L 897 145.5 L 900 143.5 L 904.5 138 Q 912.1 131.1 924.5 129 Z "></path></svg>
